assets/svg/wallet_icon_wallet_gelleryperm.svg

<svg width="81" height="80" viewBox="0 0 81 80" fill="none" xmlns="http://www.w3.org/2000/svg">
    <path
        d="M40.6023 8.05312H29.1195C28.1789 8.05312 27.343 7.45156 27.0445 6.55781L25.6914 2.5H44.032L42.6789 6.55781C42.5332 6.99328 42.2544 7.37195 41.8817 7.64028C41.5091 7.90861 41.0615 8.05303 40.6023 8.05312ZM50.8586 68.1021V70.5203C50.8586 72.8641 48.9586 74.7641 46.6148 74.7641H27.8555C26.3461 74.7641 25.1211 75.9891 25.1211 77.4984H46.6148C50.4695 77.4984 53.593 74.3734 53.593 70.5203V69.188L50.8586 68.1021Z"
        fill="#E1EAF8" />
    <path
        d="M46.6129 78.0463H23.1051C18.9551 78.0463 15.5801 74.6697 15.5801 70.5213V61.79C15.5801 61.4885 15.8254 61.2432 16.127 61.2432C16.4285 61.2432 16.6738 61.4885 16.6738 61.79V70.5213C16.6738 74.0682 19.5598 76.9525 23.1051 76.9525H46.6129C50.1598 76.9525 53.0441 74.0666 53.0441 70.5213V69.189C53.0441 68.8874 53.2895 68.6421 53.591 68.6421C53.8926 68.6421 54.1379 68.8874 54.1379 69.189V70.5213C54.1379 74.6697 50.7629 78.0463 46.6129 78.0463Z"
        fill="#9A9A9A" />
    <path
        d="M53.0441 9.47812V33.024C53.0441 33.3255 53.2895 33.5708 53.591 33.5708C53.8926 33.5708 54.1379 33.3255 54.1379 33.024V9.47812C54.1379 5.32812 50.7613 1.95312 46.6129 1.95312H23.1051C18.9551 1.95312 15.5801 5.32969 15.5801 9.47812V57.5375C15.5801 57.8391 15.8254 58.0844 16.127 58.0844C16.4285 58.0844 16.6738 57.8391 16.6738 57.5375V9.47812C16.6738 5.93125 19.5598 3.04688 23.1051 3.04688H46.6129C50.1598 3.04688 53.0441 5.93281 53.0441 9.47812Z"
        fill="#9A9A9A" />
    <path
        d="M36.8133 44.7314C36.7321 44.7314 36.6492 44.7127 36.5711 44.6752L32.9242 42.8674C32.7969 42.8014 32.7006 42.6881 32.656 42.5518C32.6114 42.4155 32.6222 42.2672 32.6859 42.1388C32.7496 42.0103 32.8612 41.912 32.9967 41.8651C33.1321 41.8181 33.2806 41.8262 33.4102 41.8877L37.0555 43.6939C37.1854 43.7584 37.2844 43.8718 37.3307 44.0092C37.377 44.1466 37.3668 44.2968 37.3024 44.4267C37.2574 44.5181 37.1878 44.595 37.1013 44.6489C37.0149 44.7027 36.9151 44.7313 36.8133 44.7314ZM33.3867 58.9064C33.1852 58.9064 32.9899 58.7939 32.8946 58.6002C32.8309 58.47 32.8214 58.3199 32.8683 58.1828C32.9151 58.0457 33.0145 57.9328 33.1446 57.8689L36.7992 56.0783C36.9294 56.0146 37.0795 56.0051 37.2166 56.052C37.3537 56.0989 37.4666 56.1982 37.5305 56.3283C37.5942 56.4584 37.6036 56.6085 37.5568 56.7456C37.5099 56.8827 37.4105 56.9956 37.2805 57.0595L33.6274 58.8502C33.5492 58.8892 33.4664 58.9064 33.3867 58.9064ZM70.8086 42.1694C70.6196 42.1694 70.4352 42.071 70.3336 41.8944C70.2978 41.8322 70.2745 41.7635 70.2653 41.6922C70.256 41.621 70.2609 41.5486 70.2796 41.4792C70.2983 41.4099 70.3305 41.3449 70.3744 41.288C70.4182 41.231 70.4729 41.1833 70.5352 41.1476L74.0617 39.1194C74.1874 39.0485 74.3361 39.0301 74.4753 39.0682C74.6145 39.1064 74.733 39.198 74.8049 39.3231C74.8769 39.4483 74.8964 39.5968 74.8594 39.7363C74.8223 39.8758 74.7316 39.995 74.6071 40.0679L71.0805 42.096C70.9961 42.146 70.9008 42.1694 70.8086 42.1694ZM60.3852 35.4772C60.3072 35.4774 60.2302 35.4609 60.1591 35.4288C60.0881 35.3967 60.0248 35.3498 59.9734 35.2912C59.922 35.2325 59.8838 35.1636 59.8613 35.089C59.8388 35.0143 59.8326 34.9357 59.843 34.8585L60.3836 30.8257C60.4242 30.5257 60.6992 30.3147 60.9977 30.3569C61.2977 30.3976 61.5071 30.6726 61.4664 30.971L60.9258 35.0038C60.9081 35.1347 60.8436 35.2548 60.7442 35.3418C60.6448 35.4289 60.5173 35.477 60.3852 35.4772Z"
        fill="#0166FF" />
    <path
        d="M48.4729 13H21.5271C20.4081 13 19.5 13.9684 19.5 15.1615V32.8385C19.5 34.0316 20.4081 35 21.5271 35H26.5218H48.4729C49.5919 35 50.5 34.0316 50.5 32.8385V15.1615C50.5 13.9684 49.5919 13 48.4729 13Z"
        fill="#E1EAF8" />
    <path
        d="M39.7745 22.5897C39.7745 23.1314 39.3164 23.5705 38.7513 23.5705C38.1862 23.5705 37.728 23.1314 37.728 22.5897C37.728 22.048 38.1862 21.6089 38.7513 21.6089C39.3164 21.6089 39.7745 22.048 39.7745 22.5897Z"
        fill="#0166FF" />
    <path fill-rule="evenodd" clip-rule="evenodd"
        d="M39.426 19.257C38.6488 19.1568 37.6558 19.1569 36.4022 19.1569H33.5965C32.3429 19.1569 31.3499 19.1568 30.5727 19.257C29.7729 19.3601 29.1256 19.5772 28.6151 20.0666C28.1046 20.5559 27.878 21.1764 27.7705 21.943C27.666 22.6879 27.666 23.6397 27.666 24.8414V24.9152C27.666 26.1169 27.666 27.0687 27.7705 27.8136C27.878 28.5802 28.1046 29.2007 28.6151 29.69C29.1256 30.1794 29.7729 30.3965 30.5727 30.4996C31.3499 30.5998 32.3429 30.5997 33.5965 30.5997H36.4022C37.6558 30.5997 38.6488 30.5998 39.426 30.4996C40.2258 30.3965 40.8731 30.1794 41.3836 29.69C41.8941 29.2007 42.1207 28.5802 42.2282 27.8136C42.3327 27.0687 42.3327 26.1169 42.3327 24.9152V24.8414C42.3327 23.6397 42.3327 22.6879 42.2282 21.943C42.1207 21.1764 41.8941 20.5559 41.3836 20.0666C40.8731 19.5772 40.2258 19.3601 39.426 19.257ZM30.7091 20.2291C30.0228 20.3175 29.6273 20.4834 29.3386 20.7601C29.0499 21.0368 28.8769 21.4159 28.7846 22.0737C28.7106 22.6014 28.694 23.2609 28.6903 24.1235L29.0356 23.8339C29.86 23.1426 31.1024 23.1822 31.8769 23.9246L34.8033 26.7296C35.0963 27.0104 35.5575 27.0487 35.8965 26.8204L36.0999 26.6833C37.0756 26.0261 38.3957 26.1022 39.2821 26.8669L41.0478 28.3901C41.12 28.1964 41.1745 27.9654 41.2141 27.6829C41.3083 27.0109 41.3094 26.1251 41.3094 24.8783C41.3094 23.6315 41.3083 22.7457 41.2141 22.0737C41.1218 21.4159 40.9488 21.0368 40.6601 20.7601C40.3714 20.4834 39.9759 20.3175 39.2896 20.2291C38.5886 20.1387 37.6645 20.1377 36.3637 20.1377H33.635C32.3342 20.1377 31.4101 20.1387 30.7091 20.2291Z"
        fill="#0166FF" />
    <path
        d="M38.7293 17.1142C38.0988 17.0332 37.296 17.0332 36.2953 17.0332H34.0295C33.0288 17.0332 32.226 17.0332 31.5955 17.1142C30.9425 17.198 30.3981 17.3767 29.9664 17.7891C29.7173 18.0269 29.5496 18.3006 29.4354 18.6093C29.8051 18.4407 30.2232 18.3413 30.6925 18.2805C31.4877 18.1775 32.5038 18.1775 33.7866 18.1775H36.6575C37.9404 18.1775 38.9564 18.1775 39.7516 18.2805C40.1616 18.3336 40.5324 18.4161 40.866 18.5486C40.7526 18.2646 40.591 18.0112 40.3584 17.7891C39.9267 17.3767 39.3823 17.198 38.7293 17.1142Z"
        fill="#0166FF" />
    <rect x="42.5" y="40" width="22" height="22" rx="11" fill="#0166FF" />
    <path d="M49.5 50.8125L52.3125 53.625L57.9375 48" stroke="white" stroke-width="1.4"
        stroke-linecap="round" stroke-linejoin="round" />
</svg>

<svg xmlns="http://www.w3.org/2000/svg" width="81" height="80" fill="none"><path fill="#E1EAF8" d="M40.602 8.053H29.12c-.941 0-1.777-.601-2.076-1.495L25.691 2.5h18.341l-1.353 4.058a2.19 2.19 0 0 1-2.077 1.495m10.257 60.05v2.417c0 2.344-1.9 4.244-4.244 4.244h-18.76a2.735 2.735 0 0 0-2.734 2.734h21.494a6.98 6.98 0 0 0 6.978-6.978v-1.332z"/><path fill="#9A9A9A" d="M46.613 78.046H23.105c-4.15 0-7.525-3.376-7.525-7.525V61.79a.547.547 0 0 1 1.094 0v8.731a6.44 6.44 0 0 0 6.431 6.432h23.508a6.44 6.44 0 0 0 6.431-6.432V69.19a.548.548 0 0 1 1.094 0v1.332c0 4.149-3.375 7.525-7.525 7.525M53.044 9.478v23.546a.548.548 0 0 0 1.094 0V9.478c0-4.15-3.377-7.525-7.525-7.525H23.105c-4.15 0-7.525 3.377-7.525 7.525v48.06a.547.547 0 0 0 1.094 0V9.478a6.44 6.44 0 0 1 6.431-6.431h23.508a6.44 6.44 0 0 1 6.431 6.431"/><path fill="#0166FF" d="M36.813 44.731a.6.6 0 0 1-.242-.056l-3.647-1.808a.547.547 0 0 1 .486-.98l3.646 1.807a.547.547 0 0 1-.243 1.037m-3.426 14.175a.55.55 0 0 1-.519-.723.55.55 0 0 1 .277-.314l3.654-1.79a.547.547 0 0 1 .482.98l-3.654 1.791a.54.54 0 0 1-.24.056M70.809 42.17a.547.547 0 0 1-.274-1.021l3.527-2.029a.548.548 0 0 1 .545.949l-3.526 2.028a.54.54 0 0 1-.272.073m-10.424-6.692a.546.546 0 0 1-.542-.618l.54-4.033a.546.546 0 1 1 1.083.145l-.54 4.033a.55.55 0 0 1-.54.473"/><path fill="#E1EAF8" d="M48.473 13H21.527c-1.119 0-2.027.968-2.027 2.162v17.677c0 1.193.908 2.161 2.027 2.161h26.945c1.12 0 2.028-.968 2.028-2.161V15.162c0-1.194-.908-2.162-2.027-2.162"/><path fill="#0166FF" d="M39.775 22.59c0 .541-.459.98-1.024.98s-1.023-.439-1.023-.98c0-.542.458-.981 1.023-.981s1.024.439 1.024.98"/><path fill="#0166FF" fill-rule="evenodd" d="M39.426 19.257c-.777-.1-1.77-.1-3.024-.1h-2.806c-1.253 0-2.246 0-3.023.1-.8.103-1.447.32-1.958.81-.51.489-.737 1.11-.844 1.876-.105.745-.105 1.697-.105 2.898v.074c0 1.202 0 2.154.104 2.899.108.766.335 1.387.845 1.876.51.49 1.158.706 1.958.81.777.1 1.77.1 3.023.1h2.806c1.254 0 2.247 0 3.024-.1.8-.104 1.447-.32 1.958-.81s.737-1.11.844-1.876c.105-.745.105-1.697.105-2.899v-.074c0-1.201 0-2.153-.105-2.898-.107-.767-.334-1.387-.844-1.876-.51-.49-1.158-.707-1.958-.81m-8.717.972c-.686.088-1.082.254-1.37.531-.29.277-.462.656-.554 1.314-.074.527-.091 1.187-.095 2.05l.346-.29a2.15 2.15 0 0 1 2.84.09l2.927 2.806a.88.88 0 0 0 1.094.09l.203-.137a2.644 2.644 0 0 1 3.182.184l1.766 1.523c.072-.194.127-.425.166-.707.094-.672.095-1.558.095-2.805s0-2.132-.095-2.804c-.092-.658-.265-1.037-.554-1.314s-.684-.443-1.37-.53c-.701-.091-1.626-.092-2.926-.092h-2.729c-1.3 0-2.225 0-2.926.091" clip-rule="evenodd"/><path fill="#0166FF" d="M38.73 17.114c-.631-.08-1.434-.08-2.435-.08H34.03c-1 0-1.803 0-2.434.08-.652.084-1.197.263-1.629.675-.249.238-.416.512-.53.82.37-.168.787-.268 1.256-.329.796-.103 1.812-.103 3.095-.103h2.87c1.283 0 2.3 0 3.095.104.41.053.78.135 1.114.268a2.1 2.1 0 0 0-.508-.76c-.431-.412-.976-.591-1.629-.675"/><rect width="22" height="22" x="42.5" y="40" fill="#0166FF" rx="11"/><path stroke="#fff" stroke-linecap="round" stroke-linejoin="round" stroke-width="1.4" d="m49.5 50.813 2.813 2.812L57.937 48"/></svg>
